src/components/images/mercury.svg

<svg  viewBox="0 0 58 59" fill="none" xmlns="http://www.w3.org/2000/svg">
<path d="M57.2152 22.4767L43.3272 26.1977L42.8092 24.2657L56.7132 20.5397C55.7942 17.5217 54.4282 14.7537 52.6972 12.2987L30.5872 18.2227L30.0692 16.2907L51.3792 10.5827C48.6812 7.30765 45.3082 4.68365 41.5302 2.86865L5.07823 12.6357C2.70823 16.0977 1.09623 20.0547 0.394225 24.2437L4.57523 23.1237L5.09323 25.0557L0.118225 26.3887C-0.154775 29.3817 0.040225 32.4607 0.753225 35.5357L36.5652 25.9397L37.0832 27.8717L1.27422 37.4667C1.66223 38.7317 2.10922 39.9637 2.64822 41.1367C5.41122 40.6857 6.81523 44.0537 5.41622 45.9077C5.58022 46.1367 5.76223 46.3487 5.93223 46.5717L21.1792 42.4857L21.6972 44.4177L7.33123 48.2677C9.90123 51.1527 13.0082 53.4827 16.4582 55.1397L38.6862 49.1837L39.2042 51.1157L19.4982 56.3957C24.7922 58.2367 30.6702 58.5787 36.4932 57.0187C42.3222 55.4567 47.2552 52.2237 50.9222 47.9757L44.4832 49.6997L43.9652 47.7677L52.9192 45.3687C53.0702 45.1477 53.2232 44.9287 53.3682 44.7047C52.5252 43.1737 52.8692 40.9317 55.0582 40.3447C55.2862 40.2837 55.5052 40.2497 55.7152 40.2367C56.4412 38.5127 56.9812 36.7077 57.3652 34.8607L51.1012 36.5397L50.5832 34.6077L57.7312 32.6927C58.1612 29.3667 58.0122 25.9207 57.2152 22.4767Z" fill="#5E5F62"/>
<path d="M21.4793 0.994676C19.6173 1.49368 17.8483 2.16668 16.1803 2.98568C16.2403 4.21968 15.6193 5.46268 14.0743 5.87768C13.2033 6.11068 12.4583 5.96268 11.8673 5.59868C10.0893 6.89968 8.48128 8.39168 7.06128 10.0347L38.4993 1.60968C33.1993 -0.235324 27.3093 -0.567324 21.4793 0.994676Z" fill="#5E5F62"/>
<path d="M24.4783 47.9987C35.8001 47.9987 44.9783 38.8205 44.9783 27.4987C44.9783 16.1768 35.8001 6.99866 24.4783 6.99866C13.1564 6.99866 3.97827 16.1768 3.97827 27.4987C3.97827 38.8205 13.1564 47.9987 24.4783 47.9987Z" fill="#77797F"/>
<path d="M20.4783 37.9987C26.8295 37.9987 31.9783 32.8499 31.9783 26.4987C31.9783 20.1474 26.8295 14.9987 20.4783 14.9987C14.127 14.9987 8.97827 20.1474 8.97827 26.4987C8.97827 32.8499 14.127 37.9987 20.4783 37.9987Z" fill="#868C9B"/>
<path d="M51.5161 34.3577C51.5111 34.2997 51.5141 34.2397 51.5061 34.1817C51.2741 32.4197 49.9001 30.6357 47.7221 30.6357C47.3651 30.6357 46.9971 30.6857 46.6291 30.7847C44.3701 31.3897 43.5831 33.3617 43.8051 35.0487C43.8621 35.4817 43.9891 35.9147 44.1791 36.3237L28.0581 40.6437C27.4521 39.4597 26.3051 38.5227 24.7301 38.5227C24.3731 38.5227 24.0051 38.5727 23.6371 38.6717C21.5301 39.2357 20.7161 40.9877 20.7941 42.5897L5.93213 46.5717C6.37813 47.1567 6.84413 47.7217 7.33013 48.2677L21.3551 44.5097C21.9801 45.6207 23.0911 46.4817 24.5981 46.4817C24.9551 46.4817 25.3231 46.4317 25.6911 46.3327C27.7231 45.7877 28.5571 44.1377 28.5431 42.5837L45.6201 38.0077C46.1711 38.3677 46.8281 38.5947 47.5901 38.5947C47.9471 38.5947 48.3151 38.5447 48.6831 38.4457C49.8971 38.1197 50.6741 37.3957 51.1101 36.5367L57.3651 34.8607C57.5141 34.1447 57.6371 33.4217 57.7311 32.6927L51.5161 34.3577ZM25.1731 44.4007C23.8011 44.7657 22.9311 43.6927 22.7961 42.6727C22.7451 42.2857 22.6931 40.9937 24.1551 40.6017C24.3541 40.5487 24.5481 40.5207 24.7301 40.5207C25.8041 40.5207 26.4171 41.4577 26.5321 42.3287C26.5831 42.7157 26.6351 44.0087 25.1731 44.4007ZM48.1651 36.5137C46.7941 36.8807 45.9231 35.8057 45.7881 34.7857C45.7371 34.3987 45.6851 33.1067 47.1471 32.7147C47.3461 32.6617 47.5401 32.6337 47.7221 32.6337C48.7961 32.6337 49.4091 33.5707 49.5241 34.4417C49.5751 34.8297 49.6271 36.1217 48.1651 36.5137Z" fill="#7684A3"/>
<path d="M38.4991 1.60968L7.06112 10.0337C6.34612 10.8607 5.69412 11.7357 5.07812 12.6357L41.5301 2.86768C40.5451 2.39468 39.5351 1.97068 38.4991 1.60968Z" fill="#7684A3"/>
<path d="M8.02016 27.1117C8.37616 27.1117 8.74416 27.0617 9.11216 26.9637C11.1442 26.4187 11.9782 24.7687 11.9642 23.2147L23.6922 20.0717C24.2752 21.3277 25.4592 22.3437 27.1022 22.3437C27.4592 22.3437 27.8272 22.2937 28.1952 22.1947C30.3772 21.6107 31.1762 19.7517 31.0292 18.1057L52.6982 12.2997C52.2812 11.7077 51.8372 11.1387 51.3792 10.5827L30.3932 16.2057C29.7532 15.1687 28.6752 14.3837 27.2362 14.3837C26.8792 14.3837 26.5112 14.4337 26.1432 14.5327C24.1862 15.0577 23.3372 16.6077 23.2882 18.1097L11.4812 21.2737C10.8752 20.0907 9.72816 19.1527 8.15216 19.1527C7.79616 19.1527 7.42816 19.2027 7.06016 19.3007C4.95316 19.8657 4.13916 21.6177 4.21716 23.2197L0.394164 24.2437C0.275164 24.9527 0.183164 25.6677 0.118164 26.3877L4.77716 25.1387C5.40216 26.2507 6.51316 27.1117 8.02016 27.1117ZM26.6602 16.4647C26.8592 16.4117 27.0532 16.3837 27.2352 16.3837C28.3092 16.3837 28.9222 17.3217 29.0372 18.1917C29.0882 18.5787 29.1402 19.8707 27.6782 20.2627C26.3082 20.6297 25.4362 19.5547 25.3012 18.5357C25.2502 18.1487 25.1982 16.8567 26.6602 16.4647ZM7.57716 21.2327C7.77616 21.1797 7.97016 21.1527 8.15116 21.1527C9.22616 21.1527 9.83916 22.0897 9.95416 22.9607C10.0052 23.3477 10.0582 24.6397 8.59516 25.0317C7.21616 25.3997 6.35316 24.3217 6.21816 23.3037C6.16716 22.9167 6.11416 21.6247 7.57716 21.2327Z" fill="#7684A3"/>
<path d="M44.9363 47.3317C44.7043 45.5687 43.3303 43.7837 41.1513 43.7837C40.7943 43.7837 40.4263 43.8337 40.0583 43.9327C37.7993 44.5377 37.0123 46.5107 37.2353 48.1967C37.2923 48.6297 37.4193 49.0637 37.6093 49.4717L16.4573 55.1397C17.4453 55.6147 18.4583 56.0347 19.4963 56.3957L39.0493 51.1567C39.6003 51.5167 40.2573 51.7437 41.0193 51.7437C41.3763 51.7437 41.7443 51.6937 42.1123 51.5947C43.3273 51.2697 44.1043 50.5437 44.5393 49.6847L50.9193 47.9757C51.6363 47.1447 52.3023 46.2737 52.9193 45.3697L44.9453 47.5057C44.9413 47.4477 44.9443 47.3887 44.9363 47.3317ZM41.5953 49.6627C40.2243 50.0277 39.3533 48.9537 39.2183 47.9347C39.1673 47.5477 39.1143 46.2557 40.5763 45.8637C40.7753 45.8107 40.9693 45.7827 41.1513 45.7827C42.2253 45.7827 42.8393 46.7207 42.9533 47.5917C43.0043 47.9787 43.0573 49.2707 41.5953 49.6627Z" fill="#7684A3"/>
<path d="M39.7642 29.9936C40.1212 29.9936 40.4892 29.9436 40.8572 29.8446C42.8902 29.3006 43.7232 27.6496 43.7092 26.0956L57.2152 22.4766C57.1402 22.1506 57.0842 21.8256 56.9972 21.4996C56.9102 21.1756 56.8112 20.8586 56.7142 20.5406L43.2252 24.1546C42.6192 22.9716 41.4722 22.0336 39.8972 22.0336C39.5402 22.0336 39.1722 22.0836 38.8042 22.1826C36.6972 22.7476 35.8832 24.4996 35.9612 26.1016L0.752197 35.5356C0.827197 35.8606 0.886197 36.1867 0.973197 36.5117C1.0602 36.8377 1.1762 37.1466 1.2742 37.4666L36.5212 28.0226C37.1462 29.1326 38.2562 29.9936 39.7642 29.9936ZM39.3212 24.1146C39.5202 24.0616 39.7142 24.0336 39.8962 24.0336C40.9702 24.0336 41.5832 24.9716 41.6982 25.8416C41.7492 26.2286 41.8012 27.5206 40.3392 27.9126C38.9672 28.2776 38.0972 27.2046 37.9622 26.1856C37.9112 25.7996 37.8592 24.5066 39.3212 24.1146Z" fill="#7684A3"/>
</svg>

<?xml version="1.0" encoding="iso-8859-1"?>
<!-- Generator: Adobe Illustrator 19.0.0, SVG Export Plug-In . SVG Version: 6.00 Build 0)  -->
<svg version="1.1" id="Capa_1" xmlns="http://www.w3.org/2000/svg" xmlns:xlink="http://www.w3.org/1999/xlink" x="0px" y="0px"
	 viewBox="0 0 58.008 58.008" style="enable-background:new 0 0 58.008 58.008;" xml:space="preserve">
<g>
	<g>
		<path style="fill:#5E5F62;" d="M57.236,22.477l-13.888,3.721l-0.518-1.932l13.904-3.726c-0.919-3.018-2.285-5.786-4.016-8.241
			l-22.11,5.924l-0.518-1.932L51.4,10.583c-2.698-3.275-6.071-5.899-9.849-7.714L5.099,12.636c-2.37,3.462-3.982,7.419-4.684,11.608
			l4.181-1.12l0.518,1.932l-4.975,1.333c-0.273,2.993-0.078,6.072,0.635,9.147l35.812-9.596l0.518,1.932L1.295,37.467
			c0.388,1.265,0.835,2.497,1.374,3.67c2.763-0.451,4.167,2.917,2.768,4.771c0.164,0.229,0.346,0.441,0.516,0.664L21.2,42.486
			l0.518,1.932l-14.366,3.85c2.57,2.885,5.677,5.215,9.127,6.872l22.228-5.956l0.518,1.932l-19.706,5.28
			c5.294,1.841,11.172,2.183,16.995,0.623c5.829-1.562,10.762-4.795,14.429-9.043L44.504,49.7l-0.518-1.932l8.954-2.399
			c0.151-0.221,0.304-0.44,0.449-0.664c-0.843-1.531-0.499-3.773,1.69-4.36c0.228-0.061,0.447-0.095,0.657-0.108
			c0.726-1.724,1.266-3.529,1.65-5.376l-6.264,1.679l-0.518-1.932l7.148-1.915C58.182,29.367,58.033,25.921,57.236,22.477z"/>
		<path style="fill:#5E5F62;" d="M21.5,0.995c-1.862,0.499-3.631,1.172-5.299,1.991c0.06,1.234-0.561,2.477-2.106,2.892
			c-0.871,0.233-1.616,0.085-2.207-0.279c-1.778,1.301-3.386,2.793-4.806,4.436L38.52,1.61C33.22-0.235,27.33-0.567,21.5,0.995z"/>
	</g>
	<circle style="fill:#77797F;" cx="24.499" cy="27.499" r="20.5"/>
	<circle style="fill:#868C9B;" cx="20.499" cy="26.499" r="11.5"/>
	<circle style="fill:#F3D55B;" cx="2.011" cy="2.556" r="1"/>
	<circle style="fill:#F3D55B;" cx="10.011" cy="56.556" r="1"/>
	<circle style="fill:#F3D55B;" cx="55.011" cy="51.556" r="1"/>
	<circle style="fill:#F3D55B;" cx="2.011" cy="54.556" r="1"/>
	<circle style="fill:#F3D55B;" cx="6.304" cy="6.102" r="1"/>
	<circle style="fill:#F3D55B;" cx="52.011" cy="3.556" r="1"/>
	<g>
		<path style="fill:#7684A3;" d="M51.537,34.358c-0.005-0.058-0.002-0.118-0.01-0.176c-0.232-1.762-1.606-3.546-3.784-3.546
			c-0.357,0-0.725,0.05-1.093,0.149c-2.259,0.605-3.046,2.577-2.824,4.264c0.057,0.433,0.184,0.866,0.374,1.275l-16.121,4.32
			c-0.606-1.184-1.753-2.121-3.328-2.121c-0.357,0-0.725,0.05-1.093,0.149c-2.107,0.564-2.921,2.316-2.843,3.918L5.953,46.572
			c0.446,0.585,0.912,1.15,1.398,1.696l14.025-3.758c0.625,1.111,1.736,1.972,3.243,1.972c0.357,0,0.725-0.05,1.093-0.149
			c2.032-0.545,2.866-2.195,2.852-3.749l17.077-4.576c0.551,0.36,1.208,0.587,1.97,0.587c0.357,0,0.725-0.05,1.093-0.149
			c1.214-0.326,1.991-1.05,2.427-1.909l6.255-1.676c0.149-0.716,0.272-1.439,0.366-2.168L51.537,34.358z M25.194,44.401
			c-1.372,0.365-2.242-0.708-2.377-1.728c-0.051-0.387-0.103-1.679,1.359-2.071c0.199-0.053,0.393-0.081,0.575-0.081
			c1.074,0,1.687,0.937,1.802,1.808C26.604,42.716,26.656,44.009,25.194,44.401z M48.186,36.514
			c-1.371,0.367-2.242-0.708-2.377-1.728c-0.051-0.387-0.103-1.679,1.359-2.071c0.199-0.053,0.393-0.081,0.575-0.081
			c1.074,0,1.687,0.937,1.802,1.808C49.596,34.83,49.648,36.122,48.186,36.514z"/>
		<path style="fill:#7684A3;" d="M38.52,1.61L7.082,10.034c-0.715,0.827-1.367,1.702-1.983,2.602l36.452-9.768
			C40.566,2.395,39.556,1.971,38.52,1.61z"/>
		<path style="fill:#7684A3;" d="M8.041,27.112c0.356,0,0.724-0.05,1.092-0.148c2.032-0.545,2.866-2.195,2.852-3.749l11.728-3.143
			c0.583,1.256,1.767,2.272,3.41,2.272c0.357,0,0.725-0.05,1.093-0.149c2.182-0.584,2.981-2.443,2.834-4.089L52.719,12.3
			c-0.417-0.592-0.861-1.161-1.319-1.717l-20.986,5.623c-0.64-1.037-1.718-1.822-3.157-1.822c-0.357,0-0.725,0.05-1.093,0.149
			c-1.957,0.525-2.806,2.075-2.855,3.577l-11.807,3.164c-0.606-1.183-1.753-2.121-3.329-2.121c-0.356,0-0.724,0.05-1.092,0.148
			c-2.107,0.565-2.921,2.317-2.843,3.919l-3.823,1.024c-0.119,0.709-0.211,1.424-0.276,2.144l4.659-1.249
			C5.423,26.251,6.534,27.112,8.041,27.112z M26.681,16.465c0.199-0.053,0.393-0.081,0.575-0.081c1.074,0,1.687,0.938,1.802,1.808
			c0.051,0.387,0.103,1.679-1.359,2.071c-1.37,0.367-2.242-0.708-2.377-1.727C25.271,18.149,25.219,16.857,26.681,16.465z
			 M7.598,21.233c0.199-0.053,0.393-0.08,0.574-0.08c1.075,0,1.688,0.937,1.803,1.808c0.051,0.387,0.104,1.679-1.359,2.071
			c-1.379,0.368-2.242-0.71-2.377-1.728C6.188,22.917,6.135,21.625,7.598,21.233z"/>
		<path style="fill:#7684A3;" d="M44.957,47.332c-0.232-1.763-1.606-3.548-3.785-3.548c-0.357,0-0.725,0.05-1.093,0.149
			c-2.259,0.605-3.046,2.578-2.823,4.264c0.057,0.433,0.184,0.867,0.374,1.275L16.478,55.14c0.988,0.475,2.001,0.895,3.039,1.256
			l19.553-5.239c0.551,0.36,1.208,0.587,1.97,0.587c0.357,0,0.725-0.05,1.093-0.149c1.215-0.325,1.992-1.051,2.427-1.91l6.38-1.709
			c0.717-0.831,1.383-1.702,2-2.606l-7.974,2.136C44.962,47.448,44.965,47.389,44.957,47.332z M41.616,49.663
			c-1.371,0.365-2.242-0.709-2.377-1.728c-0.051-0.387-0.104-1.679,1.358-2.071c0.199-0.053,0.393-0.081,0.575-0.081
			c1.074,0,1.688,0.938,1.802,1.809C43.025,47.979,43.078,49.271,41.616,49.663z"/>
		<path style="fill:#7684A3;" d="M39.785,29.994c0.357,0,0.725-0.05,1.093-0.149c2.033-0.544,2.866-2.195,2.852-3.749l13.506-3.619
			c-0.075-0.326-0.131-0.651-0.218-0.977c-0.087-0.324-0.186-0.641-0.283-0.959l-13.489,3.614c-0.606-1.183-1.753-2.121-3.328-2.121
			c-0.357,0-0.725,0.05-1.093,0.149c-2.107,0.565-2.921,2.317-2.843,3.919L0.773,35.536c0.075,0.325,0.134,0.651,0.221,0.976
			c0.087,0.326,0.203,0.635,0.301,0.955l35.247-9.444C37.167,29.133,38.277,29.994,39.785,29.994z M39.342,24.115
			c0.199-0.053,0.393-0.081,0.575-0.081c1.074,0,1.687,0.938,1.802,1.808c0.051,0.387,0.103,1.679-1.359,2.071
			c-1.372,0.365-2.242-0.708-2.377-1.727C37.932,25.8,37.88,24.507,39.342,24.115z"/>
	</g>
</g>
<g>
</g>
<g>
</g>
<g>
</g>
<g>
</g>
<g>
</g>
<g>
</g>
<g>
</g>
<g>
</g>
<g>
</g>
<g>
</g>
<g>
</g>
<g>
</g>
<g>
</g>
<g>
</g>
<g>
</g>
</svg>
